X:1
T:Frog Weny a-Courting
M:4/4
L:1/8
K:G
 G G/2G/2 G/2G/2 GE D D2| GG B/2A/2 G/2A/2 BA A2| G G/2G/2 GG ED D2|\
 GG B/2A/2 G/2A/2 BG G2| BB dd BB d2| cB A/2A/2 G/2A/2 BB A B/2A/2|\
 G G/2G/2 G G/2G/2 ED D2| GG B/2A/2 G/2A/2 BA G2|
